X:12
T:Falling Leaves
R:jig
C:Theresa Morrison
D:Laments and Merry Melodies, Theresa Morrison
Z:Paul Stewart Cranford (P.S.C.), <http://www.cranfordpub.com>
Q:300
L:1/8
M:6/8
K:D
B|A2 D F2 D|FDF A2 B|A2 D d2 F|EFG E2  G|
A2 D F2 D|FDF A2 d|f2 a g2 e|fdd d2:|
|:f|a2 b afd|gbg faf|e2 c ABA|1GFE F2 D|
a2 b afd|gbg faf|e2 F G2 E|FDD D2:|
[2GFE F2  G|A2 D F2 D|FDF A2 d|f2 a g2 e|fdd d2|]
